X:190
T:Jacksons Hornpipe
O:No 190 William Clarke of Feltwell
M:C
L:1/8
K:G
N:
BA|G2GA BABd|e2ed efge|dBge dBAG| E2 A2 A2 BA|
G2GA BGBd| e2ed efge| dBge dBAG| D2 G2 G2||
(d/e/f)| gdBd gdBd| efge dBAG| c2ce dBAG| E2 A2 A2(d/e/f)|
gdBd gdBd| efge dBAG| c2 ce dBAG| D2 G2 G2:||

